workspaces/osm/styles/symbols/post_box.12.svg

<?xml version="1.0" encoding="UTF-8" standalone="no"?>
<svg
   xmlns:dc="http://purl.org/dc/elements/1.1/"
   xmlns:cc="http://creativecommons.org/ns#"
   xmlns:rdf="http://www.w3.org/1999/02/22-rdf-syntax-ns#"
   xmlns:svg="http://www.w3.org/2000/svg"
   xmlns="http://www.w3.org/2000/svg"
   version="1.1"
   width="12"
   height="12"
   viewBox="0 0 12 12"
   id="svg2">
  <metadata
     id="metadata8">
    <rdf:RDF>
      <cc:Work
         rdf:about="">
        <dc:format>image/svg+xml</dc:format>
        <dc:type
           rdf:resource="http://purl.org/dc/dcmitype/StillImage" />
        <dc:title></dc:title>
      </cc:Work>
    </rdf:RDF>
  </metadata>
  <defs
     id="defs6" />
  <rect
     width="12"
     height="12"
     x="0"
     y="0"
     id="canvas"
     style="fill:none;stroke:none;visibility:hidden" />
  <path
     d="M 0.99999985,0 C 0.45762681,0 -2.9305082e-7,0.4576271 -1.9e-7,0.9999999 L 0,2 c 1.0627117e-7,0.559322 0.48861696,1 1,1 l 0,-2 10,0 0,2 c 0.511382,0 1,-0.4857094 1,-1 L 12,0.9999999 C 12,0.4576271 11.508475,0 11,0 Z M 7.4999865,11.987788 2,12 2,2 7.4777817,1.987813 4.4888915,6.9944615 Z M 10,12 8.9999828,11.984457 5.9888878,6.9911308 8.977778,1.984482 10,2 Z"
     id="path4258" />
</svg>

<svg width="12" height="12" version="1.1" viewBox="0 0 12 12" xmlns="http://www.w3.org/2000/svg"><rect id="a" width="12" height="12" fill="none" visibility="hidden"/><path d="m1 0c-0.57185-0.011511-1.0589 0.53679-1 1.1018 0.0093169 0.36707-0.021668 0.73711 0.021994 1.1017 0.094894 0.44555 0.52109 0.79698 0.97801 0.79644v-2h10v2c0.57396-0.00653 1.0618-0.56674 1-1.1358-0.0093-0.35413 0.02173-0.71132-0.02211-1.0629-0.10784-0.49494-0.61108-0.85388-1.1137-0.80131h-9.8642zm6.5 11.988c-1.8333 0.004071-3.6667 0.008141-5.5 0.012212v-10c1.8259-0.0040623 3.6519-0.0081247 5.4778-0.012187-0.9963 1.6689-1.9926 3.3378-2.9889 5.0066 1.0037 1.6644 2.0074 3.3289 3.0111 4.9933zm2.5 0.012212c-0.33334-0.005181-0.66668-0.010362-1-0.015543-1.0037-1.6644-2.0074-3.3289-3.0111-4.9933 0.9963-1.6689 1.9926-3.3378 2.9889-5.0066 0.34074 0.0051727 0.68148 0.010345 1.0222 0.015518v10z"/></svg>
